assets/img/icon-arrow.svg

<svg width="24" height="24" viewBox="0 0 24 24" fill="none" xmlns="http://www.w3.org/2000/svg">
<path fill-rule="evenodd" clip-rule="evenodd" d="M9 1.25C6.42603 1.25 4.42914 1.7602 3.09467 3.09467C1.7602 4.42914 1.25 6.42603 1.25 9V15C1.25 17.574 1.7602 19.5709 3.09467 20.9053C4.42914 22.2398 6.42603 22.75 9 22.75H15C17.574 22.75 19.5709 22.2398 20.9053 20.9053C22.2398 19.5709 22.75 17.574 22.75 15V9C22.75 6.42603 22.2398 4.42914 20.9053 3.09467C19.5709 1.7602 17.574 1.25 15 1.25H9ZM2.75 9C2.75 6.57397 3.2398 5.07086 4.15533 4.15533C5.07086 3.2398 6.57397 2.75 9 2.75H15C17.426 2.75 18.9291 3.2398 19.8447 4.15533C20.7602 5.07086 21.25 6.57397 21.25 9V15C21.25 17.426 20.7602 18.9291 19.8447 19.8447C18.9291 20.7602 17.426 21.25 15 21.25H9C6.57397 21.25 5.07086 20.7602 4.15533 19.8447C3.2398 18.9291 2.75 17.426 2.75 15V9ZM11.2713 7.94015C10.9788 7.64684 10.504 7.64617 10.2107 7.93864C9.91735 8.23112 9.91668 8.706 10.2092 8.9993L13.2011 11.9997L10.2092 15.0001C9.91668 15.2935 9.91735 15.7683 10.2107 16.0608C10.504 16.3533 10.9788 16.3526 11.2713 16.0593L14.7913 12.5293C15.0832 12.2366 15.0832 11.7629 14.7913 11.4701L11.2713 7.94015Z" fill="#6667AB"/>
</svg>

<svg width="24" height="24" fill="none" xmlns="http://www.w3.org/2000/svg"><path fill-rule="evenodd" clip-rule="evenodd" d="M9 1.25c-2.574 0-4.57.51-5.905 1.845C1.76 4.429 1.25 6.426 1.25 9v6c0 2.574.51 4.57 1.845 5.905C4.429 22.24 6.426 22.75 9 22.75h6c2.574 0 4.57-.51 5.905-1.845C22.24 19.571 22.75 17.574 22.75 15V9c0-2.574-.51-4.57-1.845-5.905C19.571 1.76 17.574 1.25 15 1.25H9zM2.75 9c0-2.426.49-3.93 1.405-4.845C5.071 3.24 6.574 2.75 9 2.75h6c2.426 0 3.93.49 4.845 1.405.915.916 1.405 2.419 1.405 4.845v6c0 2.426-.49 3.93-1.405 4.845-.916.915-2.419 1.405-4.845 1.405H9c-2.426 0-3.93-.49-4.845-1.405C3.24 18.929 2.75 17.426 2.75 15V9zm8.521-1.06A.75.75 0 1010.21 9l2.992 3-2.992 3a.75.75 0 101.062 1.06l3.52-3.53a.75.75 0 000-1.06l-3.52-3.53z" fill="#6667AB"/></svg>
